assets/img/icon-fb.svg

<?xml version="1.0" encoding="UTF-8"?>
<svg width="22px" height="20px" viewBox="0 0 22 20" version="1.1" xmlns="http://www.w3.org/2000/svg" xmlns:xlink="http://www.w3.org/1999/xlink">
    <!-- Generator: Sketch 47.1 (45422) - http://www.bohemiancoding.com/sketch -->
    <title>icon-fb</title>
    <desc>Created with Sketch.</desc>
    <defs>
        <path d="M21.5,18.82 C21.5,19.4132973 21.1791667,19.8 20.5316667,19.8 L15.0833333,19.8 L15.0833333,12.3837838 L17.8541667,12.3837838 L18.2741667,9.20540541 L15.0833333,9.20540541 L15.0833333,7.55264865 C15.0833333,6.70508108 15.3341667,6.02702703 16.6758333,6.02702703 L18.5833333,6.02702703 L18.5833333,3.50021622 C18,3.46313514 17.0958333,3.38367568 15.9116667,3.38367568 C13.45,3.38367568 11.5833333,4.75037838 11.5833333,7.2612973 L11.5833333,9.20540541 L8.66666667,9.20540541 L8.66666667,12.3837838 L11.5833333,12.3837838 L11.5833333,19.8 L1.48,19.8 C0.826666667,19.8 0.5,19.4132973 0.5,18.82 L0.5,1.51902703 C0.5,0.92572973 0.826666667,0.2 1.48,0.2 L20.5316667,0.2 C21.1791667,0.2 21.5,0.92572973 21.5,1.51902703 L21.5,18.82 L21.5,18.82 Z" id="path-1"></path>
    </defs>
    <g id="Page-1" stroke="none" stroke-width="1" fill="none" fill-rule="evenodd">
        <g id="design" transform="translate(-1141.000000, -1957.000000)">
            <g id="Web-Components/Footer" transform="translate(0.000000, 1629.000000)">
                <g id="Group-2" transform="translate(0.000000, 1.000000)">
                    <g id="Group-5" transform="translate(1141.000000, 325.000000)">
                        <g id="icon-fb" transform="translate(0.000000, 2.000000)">
                            <mask id="mask-2" fill="white">
                                <use xlink:href="#path-1"></use>
                            </mask>
                            <use id="Facebook" fill="#9A9A9A" xlink:href="#path-1"></use>
                        </g>
                    </g>
                </g>
            </g>
        </g>
    </g>
</svg>

<svg width="22" height="20" viewBox="0 0 22 20" xmlns="http://www.w3.org/2000/svg" xmlns:xlink="http://www.w3.org/1999/xlink"><title>icon-fb</title><defs><path d="M21.5 18.82c0 .593-.32.98-.968.98h-5.45v-7.416h2.772l.42-3.18h-3.19v-1.65c0-.85.25-1.527 1.592-1.527h1.907V3.5c-.583-.037-1.487-.116-2.67-.116-2.463 0-4.33 1.366-4.33 3.877v1.945H8.667v3.18h2.916V19.8H1.48c-.653 0-.98-.387-.98-.98V1.52C.5.925.827.2 1.48.2h19.052c.647 0 .968.726.968 1.32v17.3z" id="a"/></defs><use fill="#9A9A9A" xlink:href="#a" fill-rule="evenodd"/></svg>
